X:11
T: ES LEUCHTEN DREI STERN UEBER EIN KOENIGSHAUS
N: Z0012
O: Europa, Mitteleuropa, Deutschland, Rheinland
R: Sagen - Lied, Romanze, Tod
M: 6/8
L: 1/16
K: A
E2 | A3B=c2c3dc2 | B3=cB2A4
e2 | =f2e2d2=c3BA2 | B4z6
E2 | A3B=c2c3dc2 | B3=cB2A4
e2 | =f2e2d2=c3BA2 | B4z6
B=c | d3ed2=f2e2d2 | =c2B2A2B4
A2 | =G3AG2=f2e2d2 | d2=c2d2e4z2 |
e3dc2c2B2A2 | B6A4

@@@ Tune index: 9769
